X:1
T: Beautiful Swanee River
C:
R:Reel
Q:232
K:G
M:4/4
L:1/8
|:((3DEF) |G2GD B,D GA|B2BG DG Bd|e2ef ge dB|ed BG AG EF|
G2GD B,D GA|B2BG DG Bd|e2ef ge dc|BA GF G2dc|
BG Bd BG Bd|cA ce cA ce|dB dg ag fB|fe cA FD dc|
BG Bd BG Bd|cA ce cA ce|dg ba gf ef|g2gf g2:|
